X:18202
T:Valse à Manu (Manuel Murcia)
C:Trad 1, 110
M:3/4
L:1/8
K:C
f af|:e4c2|A3 f af|e4 c2|A3c Ac|\
B2d2G2|BG dG gd|+c4e4+ A2|A3 f af|
|:e4c2|A3 f af|e4 c2|A3c Ac|B2d2G2|\
gd Bg dB|c4A2|1 A3 f af:|2 A6||
|:b4a2|a2b2a2|c'4b2|b2c'2b2|b4a2|\
a2b2a2|e'4d'2|e'2d'2d'2:|
|:e2be c'e|d'2e'2c'2|b4a2|a2g2f2|\
e2be c'e|d'2e'2c'2|1a6|a2g2f2:|2 a4g2|a6||
|:a2f2d2|ec Ae cA|ad fa fd|ec Ae cA|\
a2f2d2|ec Ae cA|+B6d6g6+-|+B6d6g6+:|
|:A2 BA cA|eA cA cB|A2 BA cA|eA cA cB|\
A2 BA cA|eA cA cA|dG Gd Gd|dG dG dG:|
|:A2 cA cA|B2 dB dB|c2ec ec|d2 gd gd|\
e2e4|f6|1 a2e4-|e2c2A2:|2 +e6a6+||


